X: 353
T: Hora Fetelor (Girls Hora)
R: hora
O: Romani
Q: 1/4=54
B: German Goldenshteyn "Shpilt klezmorimlach klingen zoln di gesalach" New York 2003 v.3 #53
Z: 2013 John Chambers <jc:trillian.mit.edu>
N: Repeats adjusted to not require 1st/2nd endings.
M: 6/8
L: 1/16
K: Am
EFE |\
A6- A3EFE | c6- c2z4 |\
^d3e^fe d3cBA | B6- B3EFE |\
^G6- G3EFE | B6- B2z4 |
^d3e^fe d3cBc | A6- A2z :|\
|: Ade |\
f2z2d2 d2z2d2 | d6- d3Bcd |\
e2z2c2 c2z2c2 | c6- c3Bc^c |
d2z2B2 B2z2B2 | f6- f2z4 |\
^d3e^fe d3cBc | A3EcB A3 :|\
|: Ace |\
a3g^fe ^d3cBA | c6- c3e^de |
a3g^fe ^d3cBc | e6- e3e^de |\
a3g^fe ^d3cBA | d3Ade f6 |\
^d3e^fe d3cBc | A3aec A2z :|
